img/01.svg

<svg width="160" height="80" viewBox="0 0 160 80" fill="none" xmlns="http://www.w3.org/2000/svg">
<path d="M117.514 45.9199L122.714 36.8658L123.393 25.9165L122.228 25.9148L107.825 50.9861L108.434 52.0447L117.514 45.9199ZM118.746 48.042L108.971 52.9752L109.575 54.0371L138.273 54.0906L138.852 53.0774L129.054 48.0518L118.746 48.042ZM125.724 25.9213L124.474 25.9165L125.092 36.8674L130.257 45.9524L139.385 52.15L140.027 51.0444L125.724 25.9213Z" fill="#3C2829"/>
<path d="M85.0467 43.4939L85.0434 47.2306C85.0354 51.6013 82.0669 54.0508 77.9249 54.1692H77.029C72.8837 53.9957 69.9441 51.5494 69.9522 47.2063V43.4695C69.9666 39.0892 72.9351 36.659 77.0964 36.5391C77.3068 36.5358 77.7145 36.5391 77.92 36.5391C82.0958 36.6736 85.0579 39.1475 85.0467 43.4939ZM77.212 40.1656C75.5793 40.2564 74.0108 41.1075 74.0043 43.4857V47.2306C73.9979 49.5181 75.5632 50.4389 77.1976 50.5394C77.2811 50.5491 77.6921 50.5491 77.782 50.5443C79.3842 50.4535 80.972 49.5748 80.9752 47.2404L80.98 43.4939C80.9881 41.1416 79.3987 40.2613 77.7707 40.1656C77.5701 40.151 77.3999 40.151 77.212 40.1656Z" fill="#3C2829"/>
<path d="M91.2874 43.9497C91.2874 43.9497 97.372 36.9576 97.7349 36.5686L102.821 36.5815L95.4278 45.0164L103.185 53.7042L98.0319 53.6961L91.2809 46.1156L91.2681 53.6848L87.1758 53.6767L87.2143 32.3795L91.3034 32.386L91.2874 43.9497Z" fill="#3C2829"/>
<path d="M33.4252 46.4382L33.4332 43.4245C33.4444 39.0457 30.4149 36.5945 26.2648 36.4518L25.483 36.447C21.3056 36.5783 18.3355 39.0165 18.3323 43.392L18.3242 47.1094C18.3162 51.279 21.3907 53.868 25.3642 54.0771C25.7864 54.0852 26.0063 54.0739 26.2905 54.0771C31.2658 54.0852 33.1265 51.54 33.3545 48.6284L29.6106 48.6187C29.5111 49.1698 29.3264 50.5835 26.191 50.5803C25.6403 50.5738 24.8777 50.4376 24.3302 50.256C22.0055 49.4698 22.3764 46.5727 22.3764 46.4139L33.4252 46.4382ZM22.3732 43.1132C22.3732 40.8614 23.855 39.9844 25.6114 39.9146C25.7992 39.9098 25.9903 39.9049 26.1556 39.9179C27.9361 39.9925 29.426 40.9425 29.4211 43.1294V43.4196L22.3668 43.4131L22.3732 43.1132Z" fill="#3C2829"/>
<path d="M50.5691 46.4637L50.5756 43.4564C50.5868 39.0777 47.5541 36.6265 43.4008 36.4773H42.6253C38.4415 36.607 35.4634 39.0469 35.457 43.4208L35.4522 47.1413C35.4441 51.3028 38.5154 53.9032 42.4953 54.1091C42.9288 54.1172 43.1391 54.1091 43.4265 54.1091C48.4098 54.1172 50.2577 51.5655 50.4873 48.662L46.7642 48.6474C46.6422 49.2002 46.4736 50.6122 43.3189 50.6074C42.773 50.6025 42.0185 50.4647 41.479 50.2815C39.1335 49.5001 39.5188 46.6015 39.5156 46.4459L50.5691 46.4637ZM39.5043 43.1484C39.5108 40.8901 40.999 40.0115 42.7425 39.945C42.9256 39.9385 43.1246 39.9418 43.2964 39.9499C45.0704 40.0212 46.5619 40.9728 46.5571 43.1565V43.4483L39.4995 43.4386L39.5043 43.1484Z" fill="#3C2829"/>
<path d="M60.7519 36.5402C58.8559 36.5354 57.5571 37.0574 56.8427 37.675L56.8475 32.3236L52.7857 32.3171L52.752 53.6143H53.4616C53.4616 53.6143 55.2661 52.5946 55.364 52.5605C55.6257 52.841 57.4046 54.159 59.8641 54.159C60.1772 54.1622 60.4662 54.1865 60.7712 54.1671C64.8812 54.0812 67.8593 51.5051 67.8689 47.2285L67.8721 43.5128C67.8802 39.3302 64.8956 36.5435 60.7519 36.5402ZM63.8039 47.2431C63.8023 49.5743 62.1985 50.4514 60.6026 50.5568C60.5191 50.5568 60.0953 50.5535 60.0199 50.5487C58.3887 50.4384 56.8234 49.5306 56.8234 47.2366L56.833 43.4934C56.8362 41.107 58.408 40.2705 60.0343 40.1619C60.2302 40.1473 60.4068 40.1408 60.6058 40.1635C62.2177 40.2754 63.8119 41.1346 63.8087 43.5047L63.8039 47.2431Z" fill="#3C2829"/>
<path d="M17.8109 53.5519L10.0036 44.7571C10.3921 44.7798 10.7774 44.796 11.1724 44.796C13.8551 44.7992 17.1944 43.0905 17.1992 38.7523C17.2137 33.55 12.9368 32.2482 9.14628 32.245L0.0433465 32.2223L0 53.5178L4.12442 53.5276V44.0227L12.5852 53.5422L17.8109 53.5519ZM4.1501 35.8715L9.09651 35.8861C11.3811 35.8861 13.4023 36.6173 13.4023 38.8107C13.3959 41.0106 12.134 41.7985 9.08527 41.7839L4.13726 41.7806L4.1501 35.8715Z" fill="#3C2829"/>
</svg>

<svg xmlns="http://www.w3.org/2000/svg" width="160" height="80" fill="#3c2829"  xmlns:v="https://vecta.io/nano"><path d="M117.514 45.92l5.2-9.054.679-10.949-1.165-.002-14.403 25.071.609 1.059 9.08-6.125zm1.232 2.122l-9.775 4.933.604 1.062 28.698.053.579-1.013-9.798-5.026-10.308-.01zm6.978-22.121l-1.25-.005.618 10.951 5.165 9.085 9.128 6.198.642-1.106-14.303-25.123zM85.047 43.494l-.003 3.737c-.008 4.371-2.977 6.82-7.119 6.939h-.896c-4.145-.173-7.085-2.62-7.077-6.963V43.47c.014-4.38 2.983-6.81 7.144-6.93h.824c4.176.135 7.138 2.608 7.127 6.955zm-7.835-3.328c-1.633.091-3.201.942-3.208 3.32v3.745c-.006 2.287 1.559 3.208 3.193 3.309a7.56 7.56 0 0 0 .584.005c1.602-.091 3.19-.969 3.193-3.304l.005-3.747c.008-2.352-1.581-3.233-3.209-3.328a3.57 3.57 0 0 0-.559 0zm14.075 3.784l6.447-7.381 5.086.013-7.393 8.435 7.757 8.688-5.153-.008-6.751-7.581-.013 7.569-4.092-.008.038-21.297 4.089.007-.016 11.564zm-57.862 2.488l.008-3.014c.011-4.379-3.018-6.83-7.168-6.973l-.782-.005c-4.177.131-7.148 2.569-7.151 6.945l-.008 3.717c-.008 4.17 3.066 6.759 7.04 6.968.422.008.642-.003.926 0 4.975.008 6.836-2.537 7.064-5.449l-3.744-.01c-.1.551-.284 1.965-3.42 1.962a6.95 6.95 0 0 1-1.861-.324c-2.325-.786-1.954-3.683-1.954-3.842l11.049.024zm-11.052-3.325c0-2.252 1.482-3.129 3.238-3.199a5.44 5.44 0 0 1 .544.003c1.781.075 3.27 1.025 3.265 3.211v.29l-7.054-.007.006-.3zm28.196 3.351l.007-3.007c.011-4.379-3.022-6.83-7.175-6.979h-.775c-4.184.13-7.162 2.57-7.168 6.944l-.005 3.721c-.008 4.161 3.063 6.762 7.043 6.968.434.008.644 0 .931 0 4.983.008 6.831-2.544 7.061-5.447l-3.723-.015c-.122.553-.291 1.965-3.445 1.96a6.62 6.62 0 0 1-1.84-.326c-2.346-.781-1.96-3.68-1.963-3.836l11.054.018zm-11.065-3.315c.007-2.258 1.495-3.137 3.238-3.203a6.96 6.96 0 0 1 .554.005c1.774.071 3.266 1.023 3.261 3.207v.292l-7.058-.01.005-.29zm21.248-6.609c-1.896-.005-3.195.517-3.909 1.135l.005-5.351-4.062-.006-.034 21.297h.71l1.902-1.054c.262.281 2.041 1.599 4.5 1.599l.907.008c4.11-.086 7.088-2.662 7.098-6.939l.003-3.716c.008-4.183-2.977-6.969-7.12-6.973zm3.052 10.703c-.002 2.331-1.605 3.208-3.201 3.314-.084 0-.507-.003-.583-.008-1.631-.11-3.197-1.018-3.197-3.312l.01-3.743c.003-2.386 1.575-3.223 3.201-3.331.196-.015.372-.021.572.002 1.612.112 3.206.971 3.203 3.341l-.005 3.738zm-45.993 6.309l-7.807-8.795 1.169.039c2.683.003 6.022-1.706 6.027-6.044.014-5.202-4.262-6.504-8.053-6.507l-9.103-.023L0 53.518l4.124.01v-9.505l8.461 9.52 5.226.01zM4.15 35.872l4.946.015c2.285 0 4.306.731 4.306 2.925-.006 2.2-1.268 2.988-4.317 2.973l-4.948-.003.013-5.909z"/></svg>
